X:1
T: Kiss the Bride
C:
R:Reel
Q: 232
K:C
M:4/4
L:1/8
|:D2|GB AG FG Ac|BG Bd g2 dg|ec AG FG Ac|BG AF GF ED|
GB AG FG Ac|BG Bd g2 dg|ec AG FG Ac|BG AF G2 d2|
g2 fg a2 ga|ba gf g2 dg|ec AG FG Ac|BG AF GF ED|
g2 fg a2 ga|ba gf g2 dg|ec AG FG Ac|BG AF G2:|
